-----BEGIN PGP MESSAGE-----

hQIMA0MNmq/ah9SWAQ//T3NNNt9vGP4bwk06A6Ryfb7QkzVRJgCPEx4onORQyDsU
Jp3zyIydDjVXCI7rO+lrTdEDXDapATG2YjNJ0t7ZNzyK/SF3KsfQkAu7Vuy4uJZ3
Y5+XmQ3rXIAADnkfEOEA3ZwlWb4AiwWQ+owm1wqxDwdWBOQui3Oxdl6sZX8Bz4U5
3UbXwDh0lviS1cDeToLBU2NlFkIH5M8I6HiufGhKxJ0HYnPu+e5lEt6O/+lz57XH
R6e1Ok3sfO4jhNtLy2Yb6rOmekVG0ZKa7k+myvbbXjTYClQoyl+M+Ck51SMCWAa5
ATHmvt9ilCnfML4j9AUvd8LlGM6Db7lt14oELjm7dKt0Oee9SEU5MeldGxIBbAGV
QaADrcPFe25D82fnjZZKq4PplMzu24GNgcfvS9WG5L0+NOu+m0kgg0Np1dLtWiix
Flv2Og2u7VPhYS0vxJHBjZee3QnZEBVCStSiMYDOwrbkFb6lS9zLNWd/Ht4jMFZc
dlxtY/FcK5cqFnVCo0ENL7cQynEwP6amOzYMExxd205zWmccZWtwHiY1NjFEG1N+
Erc3n5Rn5LqZl2pW/hMWPY2u1rhyzfYj8HKU3kmD65Jp6z5uxTzaYmxbMna2aTrY
dbu41MXzs9hLcJan1eAI37gQmrJsjhNOxIKqtW4Jg8+0Q7qwvpELdmP5J1FaVEjS
6QEtuIpGc8+MctaUy4L/hurFMcp6adOGHC63x2wAFdPStEjdB+R5M2hp5/hS9q9Z
C5wKPqq9iXuS0/UbI/wj3DVMa2gCOm6n5181jqHqLZeQhAxTZ8IVJFz8ccn18mTX
8FqFuslS5vqkagT0VPtisLIv6t2GtThKVgmMDMjbMjygagsjexeoNCsJvFgxZq/3
ltygz+qbELUVRFRK4wRHRJYc1J6jfm5DVbgSxNgTB4nfWyICEJfEtYTo4KgSToyD
0SfGfuujo9iXLAfmf9PIhnKY+/k5caLeCPtScbvoCLt5yO2iqw25XOXlKxhSp8Rh
BmZqr79IX3n8s/SQAos5DMRUsAnN2RcLVwL74oZw1Rthlou9bSpbuwyBMtvG+EUW
mlos2hs9W0YxyC7OxzH7Dm1eSlymtxv+hX2Erb8lfW/RX00LOrpmE55EndMHcZYk
3ZtOyoRqMjQWlq62z6JjXubDwQ0JIR6JqqRrGunQBeluUD9wVqT6mLIthwNuCmKA
miY3J0Lwsb7DhdjCoilfJv4BkbT+3IcphC+w/5QGE3H6fqeLSZHaVonfpCkMYOEP
QBN9+5fkDPKfSmHAKJGc2OuQpwqc3uNK41yIUozfkvXxpMxSV+JpExSgeHbrpaBb
+ba77/3X68T3PYA7/hfE4f/itKK3Vr2vaZ+EuiMQxVdywDF5u3vQin3z+7hft78g
+C+4q0+mTcNZx77E3KVjH+XLX1SUhYxXwK0H+giSoDzoRHRWXuJbVRI7RmI+ZzZT
l97M044oPnXYnvdkWQ+RdzDTRFdzxa6MeIbzguj02fiedxUn6gwpCc2ouuxDzZbc
agoIIYvr5t55zDrYc+JaONYClgESC2z2Y0fQyJfWxdEu+aNfFysJXlXAtJk5/6P/
ZoAOs10rN5xvyu2U83AJAGFGNgYzq0ihw1ILtoa/izgOGnOwwnwKBb4Z1I9i1v2l
wVYrq2gH4uEOu3yqCTd2sOoO85cFXVreKptdRtCJxs5vXKLl
=IzUe
-----END PGP MESSAGE-----
